X: 28
T: Gingerhogs No.2
C:Phil Cunningham
M:9/8
L:1/8
K:A
Add fdd e2 f| Add efd GdB| Add fdd e2 f| GBe Afd e3 :|
|:a2 f fef def|aff efG A3| a2 f fef dBA| GBe Afd e3 :|

%%sep 2 1 500

